assets/icons/video/history-filled.svg

<svg height="24" width="24" xmlns="http://www.w3.org/2000/svg"><path style="fill:gray;stroke:none;stroke-width:2;stroke-linecap:square;stroke-linejoin:round" d="M3 3v13h1v-1h1v1h1V3H5v1H4V3H3zm4 0v6h6V3H7zm7 0v7.514A6.5 6.5 0 0 1 16.5 10a6.5 6.5 0 0 1 .5.021V3h-1v1h-1V3h-1zM4 5h1v1H4V5zm11 0h1v1h-1V5zM4 7h1v1H4V7zm11 0h1v1h-1V7zM4 9h1v1H4V9zm11 0h1v1h-1V9zm-8 1v6h3.035A6.5 6.5 0 0 1 13 11.023V10H7zm-3 1h1v1H4v-1zm0 2h1v1H4v-1z"/><path style="fill:gray;stroke:none;stroke-width:2;stroke-linecap:round;stroke-linejoin:round;stroke-dasharray:2,4" d="M16.5 11a5.5 5.5 0 0 0-5.5 5.5 5.5 5.5 0 0 0 5.5 5.5 5.5 5.5 0 0 0 5.5-5.5 5.5 5.5 0 0 0-5.5-5.5zm-.5 2h1v3.793l1.354 1.353.353.354-.707.707-.354-.353L16 17.207V13.5z"/></svg>

<?xml version="1.0" encoding="UTF-8" standalone="no"?>
<svg
   viewBox="0 0 24 24"
   height="24"
   width="24"
   version="1.1"
   id="svg6"
   sodipodi:docname="history-filled.svg"
   inkscape:version="1.2 (1:1.2.1+202207142221+cd75a1ee6d)"
   xmlns:inkscape="http://www.inkscape.org/namespaces/inkscape"
   xmlns:sodipodi="http://sodipodi.sourceforge.net/DTD/sodipodi-0.dtd"
   xmlns="http://www.w3.org/2000/svg"
   xmlns:svg="http://www.w3.org/2000/svg">
  <defs
     id="defs10" />
  <sodipodi:namedview
     id="namedview8"
     pagecolor="#ffffff"
     bordercolor="#666666"
     borderopacity="1.0"
     inkscape:pageshadow="2"
     inkscape:pageopacity="0.0"
     inkscape:pagecheckerboard="0"
     showgrid="true"
     inkscape:snap-page="true"
     inkscape:zoom="31.999999"
     inkscape:cx="8.1562504"
     inkscape:cy="10.796875"
     inkscape:window-width="1920"
     inkscape:window-height="1016"
     inkscape:window-x="0"
     inkscape:window-y="0"
     inkscape:window-maximized="1"
     inkscape:current-layer="svg6"
     inkscape:showpageshadow="2"
     inkscape:deskcolor="#d1d1d1">
    <inkscape:grid
       type="xygrid"
       id="grid1016" />
  </sodipodi:namedview>
  <path
     id="rect30"
     style="fill:#808080;fill-rule:evenodd;stroke:none;stroke-width:2;stroke-linecap:square;stroke-linejoin:round"
     d="M 3 3 L 3 16 L 4 16 L 4 15 L 5 15 L 5 16 L 6 16 L 6 3 L 5 3 L 5 4 L 4 4 L 4 3 L 3 3 z M 7 3 L 7 9 L 13 9 L 13 3 L 7 3 z M 14 3 L 14 10.513672 A 6.5 6.5 0 0 1 16.5 10 A 6.5 6.5 0 0 1 17 10.021484 L 17 10 L 17 3 L 16 3 L 16 4 L 15 4 L 15 3 L 14 3 z M 4 5 L 5 5 L 5 6 L 4 6 L 4 5 z M 15 5 L 16 5 L 16 6 L 15 6 L 15 5 z M 4 7 L 5 7 L 5 8 L 4 8 L 4 7 z M 15 7 L 16 7 L 16 8 L 15 8 L 15 7 z M 4 9 L 5 9 L 5 10 L 4 10 L 4 9 z M 15 9 L 16 9 L 16 10 L 15 10 L 15 9 z M 7 10 L 7 16 L 10.035156 16 A 6.5 6.5 0 0 1 13 11.023438 L 13 10 L 7 10 z M 4 11 L 5 11 L 5 12 L 4 12 L 4 11 z M 4 13 L 5 13 L 5 14 L 4 14 L 4 13 z " />
  <path
     id="path1888"
     style="fill:#808080;fill-rule:evenodd;stroke:none;stroke-width:2;stroke-linecap:round;stroke-linejoin:round;stroke-dasharray:2, 4"
     d="m 16.5,11 a 5.5,5.5 0 0 0 -5.5,5.5 5.5,5.5 0 0 0 5.5,5.5 5.5,5.5 0 0 0 5.5,-5.5 5.5,5.5 0 0 0 -5.5,-5.5 z m -0.5,2 h 1 v 0.5 3.292969 l 1.353516,1.353515 0.353515,0.353516 -0.707031,0.707031 -0.353516,-0.353515 -1.646484,-1.646485 v -3.707031 z" />
</svg>
